!!!COM: Hassler, Hans Leo
!!!CDT:
!!!OTL: A chi creder degg'io
!!!PTL: Madrigali a 5, 6, 7 & 8 voci
!!!PPP: Augsburg
!!!PPR: Valentin Schönigk
!!!PDT: 1596
!!!PUB-format:
!!!RISM: H 2339
!!!rime: 97
!!!AGN: Madrigal
!!!SCT: Trm0097b
!!!SCA: Trm0097b
!!!original-voices: 5
!!!extant-voices: 5
!!!complete: Y
!!!final: G
**kern	**text	**kern	**text	**kern	**text	**kern	**text	**kern	**text
*part5	*part5	*part4	*part4	*part3	*part3	*part2	*part2	*part1	*part1
*staff5	*staff5	*staff4	*staff4	*staff3	*staff3	*staff2	*staff2	*staff1	*staff1
*I"Basso	*	*I"Tenore	*	*I"Alto	*	*I"Quinto	*	*I"Canto	*
*I'B	*	*I'T	*	*I'A	*	*I'V	*	*I'C	*
*oclefF3	*	*oclefC3	*	*oclefC2	*	*oclefG2	*	*oclefG2	*
*clefF4	*	*clefGv2	*	*clefG2	*	*clefG2	*	*clefG2	*
*k[b-]	*	*k[b-]	*	*k[b-]	*	*k[b-]	*	*k[b-]	*
*F:	*	*F:	*	*F:	*	*F:	*	*F:	*
*omet(C)	*	*omet(C)	*	*omet(C)	*	*omet(C)	*	*omet(C)	*
*M4/2	*	*M4/2	*	*M4/2	*	*M4/2	*	*M4/2	*
=1	=1	=1	=1	=1	=1	=1	=1	=1	=1
2.G	A	0r	.	2r	.	0r	.	2r	.
.	.	.	.	2.b-y	A	.	.	2.dd	A
4A	chi	.	.	.	.	.	.	.	.
2B-y	cre-	.	.	.	.	.	.	.	.
.	.	.	.	4a	chi	.	.	4cc	chi
4B-y	-der	.	.	2g	cre-	.	.	2b-y	cre-
4c	deg-	.	.	.	.	.	.	.	.
=2	=2	=2	=2	=2	=2	=2	=2	=2	=2
1d	-g'i-	1r	.	4f#X	-der	0r	.	4a	-der
.	.	.	.	4g	deg-	.	.	4g	deg-
.	.	.	.	2f#X	-g'i-	.	.	2a	-g'i-
2G	-o	4r	.	1g	-o	.	.	2g	-o
.	.	4d	Se	.	.	.	.	.	.
2r	.	4BnX	va-	.	.	.	.	4r	.
.	.	4c	-ni	.	.	.	.	4g	Se
=3	=3	=3	=3	=3	=3	=3	=3	=3	=3
1r	.	4d	so-	1r	.	4r	.	4f#X	va-
.	.	4e-X	-n'i	.	.	4g	Se	4g	-ni
.	.	2d	det-	.	.	4f#X	va-	4a	so-
.	.	.	.	.	.	4g	-ni	4b-y	-n'i
4r	.	2d	-ti,	2r	.	4a	so-	4a	det-
4G	Se	.	.	.	.	4b-y	-n'i	4d	-ti,
4F#X	va-	4r	.	4r	.	4a	det-	4r	.
4G	-ni	4g	Se	4b-y	Se	4d	-ti,	4dd	<Se
=4	=4	=4	=4	=4	=4	=4	=4	=4	=4
4A	so-	4enXi	va-	4a	va-	4r	.	4cc#X	va-
4B-y	-n'i	4d	-ni	4g	-ni	4dd	<Se	4dd	-ni
2A	det-	4a	so-	4e	so-	4cc#X	va-	4ee	so-
.	.	4f	-n'i	4d	-n'i	4dd	-ni	4ff	-n'i
4A	-ti,	4c	det-	1a	det-	4ee	so-	4ee	det-
4D	i	4d	.	.	.	4ff	-n'i	2dd	.
2A	det-	2e	.	.	.	2ee	det-	.	.
.	.	.	.	.	.	.	.	4cc#i	.
=5	=5	=5	=5	=5	=5	=5	=5	=5	=5
1D	-ti,	1d	-ti,	2a	-ti,	1ff#X	-ti,>	1dd	-ti,>
.	.	.	.	4dd	A	.	.	.	.
.	.	.	.	4cc	chi	.	.	.	.
1r	.	2.G	A	2b-y	cre-	2r	.	2r	.
.	.	.	.	4b-y	-der	[2dd	A	[2b-y	A
.	.	4A	chi	4a	deg-	.	.	.	.
=6	=6	=6	=6	=6	=6	=6	=6	=6	=6
0r	.	2B-y	cre-	2g	-g'i-	4dd]	.	4b-]	.
.	.	.	.	.	.	4cc	chi	4a	chi
.	.	4B-y	-der	2g	-o	2b-y	cre-	2g	cre-
.	.	4c	deg-	.	.	.	.	.	.
.	.	1d	-g'i-	2r	.	4a	-der	4f#X	-der
.	.	.	.	.	.	4g	deg-	4g	deg-
.	.	.	.	4r	.	2a	-g'i-	2f#i	-g'i-
.	.	.	.	4d	Se	.	.	.	.
=7	=7	=7	=7	=7	=7	=7	=7	=7	=7
2r	.	4G	-o	4BnX	va-	1g	-o	1g	-o
.	.	4c	Se	4c	-ni	.	.	.	.
4r	.	4BnX	va-	4d	so-	.	.	.	.
4C	Se	4c	-ni	4e-X	-n'i	.	.	.	.
4BBnX	va-	4d	so-	4d	det-	4r	.	2r	.
4C	-ni	4e-X	-n'i	8c	-ti,	4g	Se	.	.
.	.	.	.	8c	Se	.	.	.	.
4D	so-	4d	det-	4A	va-	4f#X	va-	4r	.
4E-i	-n'i	4c	-ti,	4G	-ni	4g	-ni	4g	Se
=8	=8	=8	=8	=8	=8	=8	=8	=8	=8
0D	det-	4r	.	2d	so-	4a	so-	4f#X	va-
.	.	4G	<Se	.	.	4b-y	-n'i	4g	-ni
.	.	4F#X	va-	2d	-n'i	4a	det-	4a	so-
.	.	4G	-ni	.	.	4d	-ti,	4b-y	-n'i
.	.	4A	so-	8fL	det-	4r	.	4a	det-
.	.	.	.	8enXi	.	.	.	.	.
.	.	4B-X	-n'i	8d	.	4dd	i	2g	.
.	.	.	.	8cJ	.	.	.	.	.
.	.	2A	det-	2d	.	2dd	det-	.	.
.	.	.	.	.	.	.	.	4f#i	.
=9	=9	=9	=9	=9	=9	=9	=9	=9	=9
1G	-ti	2G	-ti>	1d	-ti	2bnX	-ti	2g	-ti
.	.	4r	.	.	.	4r	.	4r	.
.	.	4G	E'l	.	.	4dd	E'l	4b-y	E'l
1r	.	2g	ven-	1r	.	8b-iL	ven-	8gL	ven-
.	.	.	.	.	.	8cc	.	8a	.
.	.	.	.	.	.	8dd	.	8b-y	.
.	.	.	.	.	.	8b-yJ	.	8gJ	.
.	.	2fnX	-to	.	.	4cc	.	4a	.
.	.	.	.	.	.	4a	-to	4fnXi	-to
=10	=10	=10	=10	=10	=10	=10	=10	=10	=10
0r	.	2e-X	se	1r	.	4b-y	se	4g	se
.	.	.	.	.	.	4g	ne	4b-y	ne
.	.	2d	ne	.	.	4a	por-	4f	por-
.	.	.	.	.	.	8gL	.	8eL	.
.	.	.	.	.	.	8fJ	.	8dJ	.
.	.	2c	por-	4r	.	4g	.	4.e	.
.	.	.	.	4e	E'l	4a	-ta	.	.
.	.	.	.	.	.	.	.	8f	.
.	.	2B-y	-ta	4d	ven-	8b-yL	le	4g	.
.	.	.	.	.	.	8cc	.	.	.
.	.	.	.	4d	-to	8dd	.	4g	-ta
.	.	.	.	.	.	8b-yJ	.	.	.
=11	=11	=11	=11	=11	=11	=11	=11	=11	=11
1r	.	4A	le	4e	se	4cc	.	4a	le
.	.	4G	pa-	4g	ne	4dd	pa-	4b-y	pa-
.	.	2A	-ro-	2e	por-	2cc#X	-ro-	2a	-ro-
2r	.	2d	-le,	2f#X	-ta,	1dd	-le?	1a	-le?
2D	E'l	4r	.	4r	.	.	.	.	.
.	.	4f	E'l	4a	E'l	.	.	.	.
=12	=12	=12	=12	=12	=12	=12	=12	=12	=12
2d	ven-	8dL	ven-	8fnXiL	ven-	0r	.	0r	.
.	.	8e	.	8g	.	.	.	.	.
.	.	8f	.	8a	.	.	.	.	.
.	.	8dJ	.	8fJ	.	.	.	.	.
2c	-to	4e	.	4g	.	.	.	.	.
.	.	4c	-to	4e	.	.	.	.	.
2B-y	se	4d	se	4f	-to	.	.	.	.
.	.	4f	ne	4d	se	.	.	.	.
2A	ne	4c	por-	4e	ne	.	.	.	.
.	.	8BnXL	.	8dL	por-	.	.	.	.
.	.	8AJ	.	8cJ	.	.	.	.	.
=13	=13	=13	=13	=13	=13	=13	=13	=13	=13
2G	por-	4BnX	.	4d	.	0r	.	0r	.
.	.	4c	-ta	4e	-ta	.	.	.	.
2F	-ta	8dL	le	8fL	le	.	.	.	.
.	.	8e	.	8g	.	.	.	.	.
.	.	8f	.	8a	.	.	.	.	.
.	.	8dJ	.	8fJ	.	.	.	.	.
4c	le	4e	.	4g	.	.	.	.	.
4d	pa-	4d	pa-	4f	pa-	.	.	.	.
2A	-ro-	2c#X	-ro-	2e	-ro-	.	.	.	.
=14	=14	=14	=14	=14	=14	=14	=14	=14	=14
2D	-le?	4d	-le?	2f#X	-le?	4r	.	4r	.
.	.	4d	Non	.	.	4f#X	Non	4a	Non
2r	.	4d	a	2r	.	4f#i	a	4a	a
.	.	4g	le	.	.	4g	le	4b-y	le
1r	.	4f	vo-	1r	.	4a	vo-	4cc	vo-
.	.	4cnX	-ci	.	.	4g	-ci	4cc	-ci
.	.	2d	so-	.	.	2f#X	so-	2a	so-
=15	=15	=15	=15	=15	=15	=15	=15	=15	=15
4r	.	4d	-le,	4r	.	4f#i	-le,	4a	-le,
4D	Non	4A	<Non	4d	Non	4a	<Non	4f#X	<Non
4D	a	4A	a	4d	a	4a	a	4f#i	a
4G	le	4G	le	4d	le	4bnX	le	4g	le
4F	vo-	4c	vo-	4fnXi	vo-	4cc	vo-	4a	vo-
4D	-ci	4c	-ci	4g	-ci	4ee-X	-ci	4cc	-ci
2G	so-	4d	so-	2g	so-	2dd	so-	2bnX	so-
.	.	4G	.	.	.	.	.	.	.
=16	=16	=16	=16	=16	=16	=16	=16	=16	=16
2C	-le	2c	-le>	4e	-le	2cc	-le>	2cc	-le>
.	.	.	.	4g	Che	.	.	.	.
4r	.	4r	.	4g	scom-	2r	.	2r	.
4c	Che	4e	Che	4g	-pa-	.	.	.	.
4c	scom-	4e	scom-	2.g	-gna-	1r	.	1r	.
4c	-pa-	4e	-pa-	.	.	.	.	.	.
4c	-gna-	4e	-gna-	.	.	.	.	.	.
4c	-te	4e	-te	4g	-te	.	.	.	.
=17	=17	=17	=17	=17	=17	=17	=17	=17	=17
4.d	sian	4.f	sian	4b-y	sian	1r	.	1r	.
.	.	.	.	4a	da	.	.	.	.
8c	da	8e	da	.	.	.	.	.	.
4B-y	ve-	8d	ve-	4g	ve-	.	.	.	.
.	.	8e	-ri ef-	.	.	.	.	.	.
4A	-ri ef-	2f	-fet-	4f	-ri ef-	.	.	.	.
2G	-fet-	.	.	2b-y	-fet-	2r	.	2r	.
.	.	4e	.	.	.	.	.	.	.
2F	-ti,	2f	-ti,	4a	-ti,	4r	.	4r	.
.	.	.	.	4f	Che	4a	Che	4cc	Che
=18	=18	=18	=18	=18	=18	=18	=18	=18	=18
0r	.	0r	.	4f	scom-	4a	scom-	4cc	scom-
.	.	.	.	4f	-pa-	4a	-pa-	4cc	-pa-
.	.	.	.	4f	-gna-	4a	-gna-	4cc	-gna-
.	.	.	.	4f	-te	4a	-te	4cc	-te
.	.	.	.	4.g	sian	4.b-y	sian	4.ee-X	sian
.	.	.	.	8f	da	8a	da	8dd	da
.	.	.	.	4e-X	ve-	8g	ve-	4cc	ve-
.	.	.	.	.	.	8a	-ri ef-	.	.
.	.	.	.	4d	-ri ef-	[4b-y	-fet-	4b-y	-ri ef-
=19	=19	=19	=19	=19	=19	=19	=19	=19	=19
1r	.	1r	.	2c	-fet-	4b-]	.	2ee-i	-fet-
.	.	.	.	.	.	4a	.	.	.
.	.	.	.	2B-y	-ti,	2b-y	-ti,	2dd	-ti,
4r	.	4r	.	4r	.	4r	.	4r	.
4G	Che	4d	<Che	4g	<Che	4dd	<Che	4b-y	<Che
4G	scom-	4d	scom-	4g	scom-	4dd	scom-	4b-y	scom-
4G	-pa-	4d	-pa-	4g	-pa-	4dd	-pa-	4b-y	-pa-
=20	=20	=20	=20	=20	=20	=20	=20	=20	=20
4G	-gna-	4d	-gna-	4g	-gna-	4dd	-gna-	4b-y	-gna-
4G	-te	4d	-te	4g	-te	4dd	-te	4b-y	-te
4.F	sian	4.A	sian	4.a	sian	4.ff	sian	4.cc	sian
8C	da	8c	da	8g	da	8ee	da	8cc	da
4G	ve-	4d	ve-	4g	ve-	4dd	ve-	4bnX	ve-
4D	-ri ef-	4d	-ri ef-	4a	-ri ef-	4ff	-ri ef-	4dd	-ri ef-
2A	-fet-	2e	-fet-	2a	-fet-	2ee	-fet-	2cc#X	-fet-
=21	=21	=21	=21	=21	=21	=21	=21	=21	=21
1D	-ti,	2f#X	-ti,>	1a	-ti,>	2dd	-ti,>	1dd	-ti,>
.	.	4r	.	.	.	4r	.	.	.
.	.	4d	A-	.	.	4d	A-	.	.
1r	.	4c	-mor,	1r	.	4e	-mor,	1r	.
.	.	4.A	cre-	.	.	4.f#X	cre-	.	.
.	.	8A	-de-	.	.	8f#i	-de-	.	.
.	.	4B-y	-rò	.	.	4g	-rò	.	.
=22	=22	=22	=22	=22	=22	=22	=22	=22	=22
0r	.	2A	ma-	2r	.	2f#X	ma-	2r	.
.	.	2G	-i,	4r	.	2g	-i,	4r	.
.	.	.	.	4d	A-	.	.	4dd	A-
.	.	1r	.	4e	-mor,	1r	.	4cc	-mor,
.	.	.	.	4.f#X	cre-	.	.	4.a	cre-
.	.	.	.	8f#i	-de-	.	.	8a	-de-
.	.	.	.	4g	-rò	.	.	4b-y	-rò
=23	=23	=23	=23	=23	=23	=23	=23	=23	=23
1r	.	4r	.	4f#X	ma-	4r	.	4a	ma-
.	.	4d	<A-	4f#i	-i,	4dd	<A-	4d	-i,
.	.	4e	-mor,	2r	.	4cc	-mor,	2r	.
.	.	4.f#X	cre-	.	.	4.a	cre-	.	.
2r	.	.	.	2r	.	.	.	1r	.
.	.	8f#i	-de-	.	.	8a	-de-	.	.
.	.	4g	-rò	.	.	4b-y	-rò	.	.
4r	.	4f#X	ma-	4r	.	4a	ma-	.	.
4d	A-	4f#i	-i,>	4a	A-	4d	-i;>	.	.
=24	=24	=24	=24	=24	=24	=24	=24	=24	=24
4BnX	-mor,	1r	.	4g	-mor,	0r	.	1r	.
4.c#X	cre-	.	.	4.e	cre-	.	.	.	.
8c#i	-de-	.	.	8e	-de-	.	.	.	.
4d	-rò	.	.	4fnXi	-rò	.	.	.	.
2c#X	ma-	2r	.	2e	ma-	.	.	2r	.
4d	-i,	4r	.	4d	-i,	.	.	4r	.
4D	A-	4d	<A-	4f#X	<A-	.	.	4a	<A-
=25	=25	=25	=25	=25	=25	=25	=25	=25	=25
4G	-mor,	4d	-mor,	4g	-mor,	0r	.	4bnX	-mor,
4.F	cre-	4.f	cre-	4.a	cre-	.	.	4.cc	cre-
8F	-de-	8f	-de-	8a	-de-	.	.	8cc	-de-
4B-i	-rò	4d	-rò	4g	-rò	.	.	4dd	-rò
2A	ma-	2e	ma-	2a	ma-	.	.	2cc#X	ma-
2D	-i;	2f#X	-i;>	2a	-i;>	.	.	2dd	-i;>
=26	=26	=26	=26	=26	=26	=26	=26	=26	=26
2r	.	2r	.	2r	.	2r	.	2r	.
2G	Ma	2d	Ma	2g	Ma	2dd	Ma	2b-i	Ma
[1E-X	tan-	2.G	tan-	[1g	tan-	[1ee-X	tan-	[1b-y	tan-
.	.	4A	-t'hor	.	.	.	.	.	.
=27	=27	=27	=27	=27	=27	=27	=27	=27	=27
2E-]	.	2B-y	te-	2g]	.	2ee-]	.	2b-]	.
2E-X	-t'hor	2B-y	-mo,	2g	-t'hor	2ee-i	-t'hor	2b-y	-t'hor
1BB-y	te-	4B-y	quan-	1f	te-	1dd	te-	1b-y	te-
.	.	4c	.	.	.	.	.	.	.
.	.	4d	.	.	.	.	.	.	.
.	.	4c	.	.	.	.	.	.	.
=28	=28	=28	=28	=28	=28	=28	=28	=28	=28
1BB-y	-mo,	4B-y	.	1f	-mo,	1dd	-mo,	1b-y	-mo,
.	.	8AL	.	.	.	.	.	.	.
.	.	8GJ	.	.	.	.	.	.	.
.	.	4F	.	.	.	.	.	.	.
.	.	4G	.	.	.	.	.	.	.
[1F	quan-	4A	.	[1f	quan-	[1cc	quan-	[1a	quan-
.	.	4B-y	.	.	.	.	.	.	.
.	.	2c	.	.	.	.	.	.	.
=29	=29	=29	=29	=29	=29	=29	=29	=29	=29
2F]	.	2c	-to	2f]	.	2cc]	.	2a]	.
2F	-to	1c	già	2f	-to	2cc	-to	2a	-to
2F	già	.	.	2f	già	2cc	già	2a	già
2G	spe-	2G	spe-	2d	spe-	2b-y	spe-	2g	spe-
=30	=30	=30	=30	=30	=30	=30	=30	=30	=30
1D	-ra-	1A	-ra-	1d	-ra-	2a	-ra-	1f#X	-ra-
.	.	.	.	.	.	2a	-i.	.	.
1D	-i.	1A	-i.	2d	-i.	4r	.	2f#i	-i.
.	.	.	.	.	.	4a	A-	.	.
.	.	.	.	4r	.	2dd	-mor,	4r	.
.	.	.	.	4d	A-	.	.	4a	A-
=31	=31	=31	=31	=31	=31	=31	=31	=31	=31
2r	.	2r	.	2g	-mor,	4r	.	2b-y	-mor,
.	.	.	.	.	.	4g	A-	.	.
4r	.	4r	.	4r	.	2dd	-mor,	2r	.
4G	A-	4g	A-	4b-y	A-	.	.	.	.
2d	-mor,	2f#X	-mor,	2a	-mor,	2r	.	4r	.
.	.	.	.	.	.	.	.	4a	A-
4r	.	4r	.	4r	.	4r	.	2dd	-mor,
4D	A-	4d	A-	4f#X	A-	4a	<A-	.	.
=32	=32	=32	=32	=32	=32	=32	=32	=32	=32
1G	-mor,	1d	-mor,	1g	-mor,	1b-y	-mor,>	4r	.
.	.	.	.	.	.	.	.	4dd	se
.	.	.	.	.	.	.	.	4b-y	vuoi
.	.	.	.	.	.	.	.	4g	ch'io
4r	.	4r	.	2r	.	2r	.	2b-y	cre-
4G	se	4d	se	.	.	.	.	.	.
4F	vuoi	4.fnXi	vuoi	4r	.	4r	.	2a	-da,
4D	ch'io	.	.	4a	se	4dd	se	.	.
.	.	8g	ch'io	.	.	.	.	.	.
=33	=33	=33	=33	=33	=33	=33	=33	=33	=33
2d	cre-	4a	cre-	4f	vuoi	4.ff	vuoi	1r	.
.	.	4a	-da,	4d	ch'io	.	.	.	.
.	.	.	.	.	.	8ee	ch'io	.	.
2d	-da,	4r	.	2a	cre-	2dd	cre-	.	.
.	.	4d	<se	.	.	.	.	.	.
2r	.	4B-y	vuoi	4d	-da,	2dd	-da,	4r	.
.	.	4G	ch'io	4b-y	se	.	.	4dd	<se
4r	.	2d	cre-	4a	vuoi	2r	.	4.ff	vuoi
4d	se	.	.	4f	ch'io	.	.	.	.
.	.	.	.	.	.	.	.	8ee	ch'io
=34	=34	=34	=34	=34	=34	=34	=34	=34	=34
4B-y	vuoi	4G	-da,>	4.b-y	cre-	1r	.	2dd	cre-
4G	ch'io	4g	ch'io	.	.	.	.	.	.
.	.	.	.	16aL	.	.	.	.	.
.	.	.	.	16gJ	.	.	.	.	.
2d	cre-	2f#X	cre-	2a	.	.	.	2dd	-da,>
2G	-da,	2g	-da,	2g	-da,	2r	.	2r	.
2G	Con-	2d	Con-	2g	Con-	2bnX	Con-	2dd	Con-
=35	=35	=35	=35	=35	=35	=35	=35	=35	=35
2.G	-vien	2.d	-vien	2.g	-vien	2.bnXi	-vien	2.dd	-vien
4G	che	4d	che	4g	che	4bni	che	4dd	che
2G	l'al-	2d	l'al-	2g	l'al-	2bni	l'al-	2dd	l'al-
2C	-trui	2c	-trui	2g	-trui	2cc	-trui	2ee	-trui
=36	=36	=36	=36	=36	=36	=36	=36	=36	=36
2.F	cor	2c	cor	2.a	cor	2.cc	cor	4ff	cor
.	.	.	.	.	.	.	.	4cc	o
.	.	2A	o	.	.	.	.	2.ff	fat-
4F	o	.	.	4a	o	4cc	o	.	.
2D	fat-	2d	fat-	2a	fat-	2dd	fat-	.	.
.	.	.	.	.	.	.	.	4ee	-ti
2D	-ti	2d	-ti	2f	-ti	2a	-ti	[2dd	ve-
=37	=37	=37	=37	=37	=37	=37	=37	=37	=37
1A	ve-	1e	ve-	4e	ve-	1a	ve-	4dd]	.
.	.	.	.	4A	.	.	.	8cc#iL	.
.	.	.	.	.	.	.	.	8bnXiJ	.
.	.	.	.	2a	.	.	.	2cc#i	.
1D	-da,	2d	-da,	1f#X	-da,	2a	-da,	[1dd	-da,
.	.	4r	.	.	.	4r	.	.	.
.	.	4d	o	.	.	4dd	o	.	.
=38	=38	=38	=38	=38	=38	=38	=38	=38	=38
4r	.	2f#X	fat-	4r	.	2a	fat-	1dd]	.
4d	o	.	.	4d	o	.	.	.	.
4B-y	fat-	2g	-ti	4d	fat-	2b-y	-ti	.	.
4G	-ti	.	.	4g	-ti	.	.	.	.
2d	ve-	2d	ve-	2f#X	ve-	2a	ve-	2r	.
2D	-da,	2d	-da,	4f#i	-da,	2a	-da,	2dd	o
.	.	.	.	4d	o	.	.	.	.
=39	=39	=39	=39	=39	=39	=39	=39	=39	=39
1r	.	4r	.	2f#X	fat-	4r	.	2a	fat-
.	.	4d	o	.	.	4dd	<o	.	.
.	.	4B-y	fat-	2g	-ti	4dd	fat-	2b-y	-ti
.	.	4G	-ti	.	.	4gg	-ti	.	.
2r	.	4d	ve-	1d	ve-	2ff#X	ve-	2a	ve-
.	.	4d	-da,	.	.	.	.	.	.
2D	o	4r	.	.	.	2ff#i	-da,>	2a	-da,
.	.	4d	<o	.	.	.	.	.	.
=40	=40	=40	=40	=40	=40	=40	=40	=40	=40
2F#X	fat-	2A	fat-	1d	-da,	4r	.	4r	.
.	.	.	.	.	.	4dd	<o	4dd	o
2G	-ti	2B-y	-ti	.	.	4b-y	fat-	4dd	fat-
.	.	.	.	.	.	4g	-ti	4gg	-ti
[1D	ve-	2A	ve-	4r	.	2dd	ve-	2ff#X	ve-
.	.	.	.	4a	o	.	.	.	.
.	.	4A	-da,>	8dL	fat-	4dd	-da,>	4ff#i	-da,
.	.	.	.	8e	.	.	.	.	.
.	.	4d	o	8fnXi	.	4a	o	4dd	<o
.	.	.	.	8gJ	.	.	.	.	.
=41	=41	=41	=41	=41	=41	=41	=41	=41	=41
0D]	.	2A	fat-	4a	.	2f	fat-	2ffnXi	fat-
.	.	.	.	4a	-ti	.	.	.	.
.	.	2B-y	-ti	2.g	ve-	2g	-ti	2dd	-ti
.	.	1A	ve-	.	.	1a	ve-	1dd	ve-
.	.	.	.	8f#iL	.	.	.	.	.
.	.	.	.	8eJ	.	.	.	.	.
.	.	.	.	2f#i	.	.	.	.	.
=42	=42	=42	=42	=42	=42	=42	=42	=42	=42
0Gl	-da.	0Gl	-da.	0gl	-da.	0bnXl	-da.	0ddl	-da.>
==	==	==	==	==	==	==	==	==	==
*-	*-	*-	*-	*-	*-	*-	*-	*-	*-
!!!system-decoration: [*]
!!!RDF**kern: i = editorial accidental
!!!RDF**kern: l = terminal long
!!!ENC: Emiliano Ricciardi
!!!END: 2019/01/01
!!!EED: Donnelly, Daniel
!!!EEV: 2019/03/02
!!!YEC: Copyright 2018 Emiliano Ricciardi, All Rights Reserved
!!!ONB: Translated from MusicXML on 2019/03/02 and edited by Craig Stuart Sapp
!!@@BEGIN:	VERSEDATA
!!@SOLERTI:	97
!!@CATALOGNUM:	Trm0097
!!@LAST_MODIFIED: 2020/07/12
!!@TITLE:		A chi creder degg'io
!!@GENRE:		madrigale
!!@MANUSRC:	C, E<sub>1</sub>, F<sub>2</sub>, V<sub>8</sub>, V<sub>13/E1</sub>
!!@PRINTSRC:	28, 48, 54, 93, 141, 166, 169
!!@@BEGIN:	VERSES
!!@ABOUTIT:	Parla con Amore, dicendo di non voler credere più a le parole che a' fatti.
!!@ABOUTEN:	He speaks to Love, saying that he is no longer willing to trust words more than facts.
!!@EDITOR:	Solerti, Angelo
!!@EDITION_TITLE: Le Rime di Torquato Tasso
!!@EDITION_LOC:	Bologna
!!@EDITION_PUB:	Romagnoli-Dall’Acqua
!!@EDITION_DATE:  1898-1902
!!@EDITION_VOL:	2
!!@EDITION_PAGE:  141
!!@TRANSLATOR:	Emiliano Ricciardi and Amyrose McCue Gill
!!@VERSE:
!!	A chi creder degg'io
!!	Se vani sono i detti
!!	E 'l vento se ne porta le parole?
!!	Non a le voci sole
!!	Che scompagnate sian da veri effetti,
!!	Amor, crederò mai;
!!	Ma tanto or temo, quanto già sperai.
!!	Amor, se vuoi ch'io creda,
!!	Convien che 'l core altrui ne' fatti veda.
!!@TVERSE:
!!	Whom should I believe
!!	If utterances are empty
!!	And the wind carries away words?
!!	Not only in voices—
!!	Should they be unaccompanied by true effects—
!!	Shall I ever believe, Love;
!!	But now I fear as much as I once hoped.
!!	Love, if you want me to believe,
!!	It would be better were I to see the other’s heart in deeds.
!!@@END:		VERSES
!!@OTHER_CRIT_ED:   Torquato Tasso, <i>Rime d’amore (secondo il codice
!!		Chigiano L VIII 302)</i>, eds. Franco Gavazzeni and
!!		Vercingetorige Martignone, vol. 4 of <i>Edizione
!!		Nazionale delle opere di Torquato Tasso</i>
!!		(Alessandria: Edizioni Dell’Orso, 2004), 76.
!!@ATTRIBUTION_ABOUT:	Secure
!!		<br>
!!		Among other authoritative sources (see Literary
!!		Sources), this poem appears in the autograph Chigiano
!!		L.VIII.302 (Biblioteca Vaticana, Rome), compiled
!!		around 1584&ndash;85.
!!@DATING:
!!@DEDICATEE:	Bendidio, Lucrezia
!!@COMMENTARY:
!!@@END:		VERSEDATA
!!@@BEGIN:	SETTING
!!@CATALOGNUM:	Trm0097b
!!@RIMETITLE:	A chi creder degg'io
!!@SOLERTI:	97
!!@COMPOSER:	Hassler, Hans Leo
!!@PRINCEPSTITLE:	Madrigali a 5, 6, 7 & 8 voci
!!@PRINCEPSLOC:	Augusta
!!@NORMLOC:	Augsburg
!!@NORMPUB:	Valentin Schönigk
!!@NORMPUBSHORT:	Schönigk
!!@PRINCEPSPUB:	Schoenigk
!!@PRINCEPSYEAR:	1596
!!@PRINCEPSRISM:	H 2339
!!@REPRINTS:	1600-05a/06
!!@OVOICES:	5
!!@EXTANTVOICES:	5
!!@PARTBOOKS:	
!!@EXTPARTBOOKS:	
!!@OCLEFS:	G2,G2,C2,C3,F3
!!@OMENSURATION:	C
!!@OKEYSIG:	b-
!!@FINAL:	G
!!@TIMPEDITOR:	Donnelly, Daniel
!!@NOTE:		
!!@@END:		SETTING
